src/img/icon-cursor.svg

<svg height="18" viewBox="0 0 14 18" width="14" xmlns="http://www.w3.org/2000/svg"><path d="m28.7229254 33.0720878-2.4823708 3.4127137c-.2920995.508512-1.0219788.3629328-1.0948365-.2180364l-3.1395155-14.4483912c-.0728507-.5809697.5113237-1.0163602.9491211-.7258666l12.7028625 7.6236637c.5113236.2904936.4377973 1.0163602-.1457014 1.1619394l-4.1613887 1.2343966 3.7964842 5.0825008c.2192418.2904936.1457014.6534271-.0728507.8714635l-1.825402 1.3068538c-.2920995.2180364-.6570391.1449004-.8762809-.1449004l-3.6501002-5.1549406z" fill="#fff" fill-rule="evenodd" transform="translate(-22 -21)"/></svg>

<?xml version="1.0" encoding="UTF-8"?>
<svg width="14px" height="18px" viewBox="0 0 14 18" version="1.1" xmlns="http://www.w3.org/2000/svg" xmlns:xlink="http://www.w3.org/1999/xlink">
    <!-- Generator: Sketch 56.2 (81672) - https://sketch.com -->
    <title>Fill 1</title>
    <desc>Created with Sketch.</desc>
    <g id="Page-1" stroke="none" stroke-width="1" fill="none" fill-rule="evenodd">
        <g id="311-Approved-" transform="translate(-322.000000, -608.000000)" fill="#FFFFFF">
            <g id="Header" transform="translate(0.000000, 387.000000)">
                <g id="Group-3" transform="translate(300.000000, 200.000000)">
                    <path d="M28.7229254,33.0720878 L26.2405546,36.4848015 C25.9484551,36.9933135 25.2185758,36.8477343 25.1457181,36.2667651 L22.0062026,21.8183739 C21.9333519,21.2374042 22.5175263,20.8020137 22.9553237,21.0925073 L35.6581862,28.716171 C36.1695098,29.0066646 36.0959835,29.7325312 35.5124848,29.8781104 L31.3510961,31.112507 L35.1475803,36.1950078 C35.3668221,36.4855014 35.2932817,36.8484349 35.0747296,37.0664713 L33.2493276,38.3733251 C32.9572281,38.5913615 32.5922885,38.5182255 32.3730467,38.2284247 L28.7229465,33.0734841 L28.7229254,33.0720878 Z" id="Fill-1"></path>
                </g>
            </g>
        </g>
    </g>
</svg>
